lumen-edit/assets/presets/sample-golden-film.xmp
<x:xmpmeta xmlns:x="adobe:ns:meta/" x:xmptk="Adobe XMP Core">
 <rdf:RDF xmlns:rdf="http://www.w3.org/1999/02/22-rdf-syntax-ns#">
  <rdf:Description rdf:about=""
    xmlns:crs="http://ns.adobe.com/camera-raw-settings/1.0/"
    crs:Version="15.0"
    crs:ProcessVersion="11.0"
    crs:WhiteBalance="Custom"
    crs:Temperature="6200"
    crs:Tint="+18"
    crs:Exposure2012="+0.35"
    crs:Contrast2012="+22"
    crs:Highlights2012="-35"
    crs:Shadows2012="+28"
    crs:Whites2012="-8"
    crs:Blacks2012="+12"
    crs:Texture="+10"
    crs:Clarity2012="+18"
    crs:Dehaze="+8"
    crs:Vibrance="+24"
    crs:Saturation="+6"
    crs:GrainAmount="15"
    crs:Name="Sample Golden Film"
    crs:Group="Lumen Samples"
    crs:HasSettings="True">
  </rdf:Description>
 </rdf:RDF>
</x:xmpmeta>
